public/images/icons/auction.svg

<svg fill="none" height="42" viewBox="0 0 44 42" width="44" xmlns="http://www.w3.org/2000/svg" xmlns:xlink="http://www.w3.org/1999/xlink"><linearGradient id="a"><stop offset="0" stop-color="#ffe7e0"/><stop offset=".34375" stop-color="#f8dbf4"/><stop offset=".6875" stop-color="#c4ddff"/><stop offset="1" stop-color="#cae9ff"/></linearGradient><linearGradient id="b" gradientUnits="userSpaceOnUse" x1="8" x2="27.7498" xlink:href="#a" y1="18" y2="1.22387"/><linearGradient id="c" gradientUnits="userSpaceOnUse" x1="8" x2="32.3465" xlink:href="#a" y1="29" y2="12.156"/><linearGradient id="d" gradientUnits="userSpaceOnUse" x1=".000001" x2="30.5757" xlink:href="#a" y1="18" y2="1.02486"/><linearGradient id="e" gradientUnits="userSpaceOnUse" x1="2" x2="29.356" xlink:href="#a" y1="18" y2="2.62255"/><path d="m18 20h24v4h-24zm-10-12h12v4h-12zm16 0h8v4h-8zm-16 16h6v4h-6z" fill="url(#b)"/><path d="m30 16c-1.0609 0-2.0783.4214-2.8284 1.1716-.7502.7501-1.1716 1.7675-1.1716 2.8284s.4214 2.0783 1.1716 2.8284c.7501.7502 1.7675 1.1716 2.8284 1.1716s2.0783-.4214 2.8284-1.1716c.7502-.7501 1.1716-1.7675 1.1716-2.8284s-.4214-2.0783-1.1716-2.8284c-.7501-.7502-1.7675-1.1716-2.8284-1.1716zm-22 0h6v4h-6zm20 20c0 3.314-2.686 6-6 6s-6-2.686-6-6zm-6-8.514 2.838 8.514h3.162l-4-12h-4l-4 12h3.162zm22 8.514c0 3.314-2.686 6-6 6s-6-2.686-6-6zm-6-8.514 2.838 8.514h3.162l-4-12h-4l-4 12h3.162z" fill="url(#c)"/><path d="m36 0h-32c-2.206 0-4 1.794-4 4v28c0 2.206 1.794 4 4 4h8v-.65l1.116-3.35h-9.116v-28h32v10.78c.33.382.636.782.89 1.22h3.11v-12c0-2.206-1.794-4-4-4z" fill="url(#d)"/><path d="m2 2v32h10.45l1.55-4.648v-13.352h9.11c1.386-2.382 3.936-4 6.89-4s5.504 1.618 6.89 4h1.11v-14z" fill="url(#e)" opacity=".3"/></svg>

<svg width="44" height="42" viewBox="0 0 44 42" fill="none" xmlns="http://www.w3.org/2000/svg">
<path d="M18 20H42V24H18V20ZM8 8H20V12H8V8ZM24 8H32V12H24V8ZM8 24H14V28H8V24Z" fill="url(#paint0_linear_25_557)"/>
<path d="M30 16C28.9391 16 27.9217 16.4214 27.1716 17.1716C26.4214 17.9217 26 18.9391 26 20C26 21.0609 26.4214 22.0783 27.1716 22.8284C27.9217 23.5786 28.9391 24 30 24C31.0609 24 32.0783 23.5786 32.8284 22.8284C33.5786 22.0783 34 21.0609 34 20C34 18.9391 33.5786 17.9217 32.8284 17.1716C32.0783 16.4214 31.0609 16 30 16ZM8 16H14V20H8V16ZM28 36C28 39.314 25.314 42 22 42C18.686 42 16 39.314 16 36H28ZM22 27.486L24.838 36H28L24 24H20L16 36H19.162L22 27.486ZM44 36C44 39.314 41.314 42 38 42C34.686 42 32 39.314 32 36H44ZM38 27.486L40.838 36H44L40 24H36L32 36H35.162L38 27.486Z" fill="url(#paint1_linear_25_557)"/>
<path d="M36 0H4C1.794 0 0 1.794 0 4V32C0 34.206 1.794 36 4 36H12V35.35L13.116 32H4V4H36V14.78C36.33 15.162 36.636 15.562 36.89 16H40V4C40 1.794 38.206 0 36 0Z" fill="url(#paint2_linear_25_557)"/>
<path opacity="0.3" d="M2 2V34H12.45L14 29.352V16H23.11C24.496 13.618 27.046 12 30 12C32.954 12 35.504 13.618 36.89 16H38V2H2Z" fill="url(#paint3_linear_25_557)"/>
<defs>
<linearGradient id="paint0_linear_25_557" x1="8" y1="18" x2="27.7498" y2="1.22387" gradientUnits="userSpaceOnUse">
<stop stop-color="#FFE7E0"/>
<stop offset="0.34375" stop-color="#F8DBF4"/>
<stop offset="0.6875" stop-color="#C4DDFF"/>
<stop offset="1" stop-color="#CAE9FF"/>
</linearGradient>
<linearGradient id="paint1_linear_25_557" x1="8" y1="29" x2="32.3465" y2="12.156" gradientUnits="userSpaceOnUse">
<stop stop-color="#FFE7E0"/>
<stop offset="0.34375" stop-color="#F8DBF4"/>
<stop offset="0.6875" stop-color="#C4DDFF"/>
<stop offset="1" stop-color="#CAE9FF"/>
</linearGradient>
<linearGradient id="paint2_linear_25_557" x1="1.1913e-06" y1="18" x2="30.5757" y2="1.02486" gradientUnits="userSpaceOnUse">
<stop stop-color="#FFE7E0"/>
<stop offset="0.34375" stop-color="#F8DBF4"/>
<stop offset="0.6875" stop-color="#C4DDFF"/>
<stop offset="1" stop-color="#CAE9FF"/>
</linearGradient>
<linearGradient id="paint3_linear_25_557" x1="2" y1="18" x2="29.356" y2="2.62255" gradientUnits="userSpaceOnUse">
<stop stop-color="#FFE7E0"/>
<stop offset="0.34375" stop-color="#F8DBF4"/>
<stop offset="0.6875" stop-color="#C4DDFF"/>
<stop offset="1" stop-color="#CAE9FF"/>
</linearGradient>
</defs>
</svg>
